X: 04016
T: CHERYL'S REEL
C: Bob McQuillen 2 Feb 80
B: Bob's Note Book 04 #16
%R: reel
Z: 2020 John Chambers <jc:trillian.mit.edu>
M: C
L: 1/8
K: D
FG \
| ABAF DFAd | dedB A2AG | FAde dAdf | abaf e2FG |\
| ABAF DFAd | dedB Adfa | gece ABcd | e2d2 d2 :|
|: fg \
| afbf afde | fgab a2fg | afgb afdf | gbaf edcB |\
| AFdB AFDE | FAdB ABde | faba gecd | e2d2 d2 :|
%%begintext align
%% Timber Salvage is really
%% lucky because they have a
%% truly great fiddler, and this tune
%% belongs to Cheryl Hurwitz,
%% with love always -
%%endtext

%%sep 1 1 500

%%sep 1 1 500

